;FLAVOR:Marlin
;TIME:210
;Filament used: 0.155324m
;Layer height: 0.2
;MINX:98.87
;MINY:93.35
;MINZ:0.2
;MAXX:131.67
;MAXY:126.15
;MAXZ:0.4
;Generated with Cura_SteamEngine 4.13.1
M82 ;absolute extrusion mode
;Ender 3 V2 Start Code
M117 Pre-heating the extruder!
M104 S150; start warming extruder to 150
M117 Getting the bed up to temp!
M140 S80 ; Set Heat Bed temperature
M190 S80 ; Wait for Heat Bed temperature
G28 ; Home all axes
BED_MESH_PROFILE LOAD="default"
G1 X245 Y218.5 Z1 F5000.0
G92 E0 ; Reset extruder
M117 Getting the extruder up to temp!
M104 S240.0 ; Set Extruder temperature
M109 S240.0 ; Wait for Extruder temperature
G1 Z1.0 F3000 ; move z up little to prevent scratching of surface
G1 X228 Y200 Z0.3 F5000.0 ; move to start-line position
M117 LET THE PURGE BEGIN!
G1 X228 Y20 Z0.3 F1500.0 E15 ; draw 1st line
G1 X225.2 Y20 Z0.3 F5000.0 ; move to side a little
G1 X225.2 Y200 Z0.3 F1500.0 E30 ; draw 2nd line
G92 E0 ; reset extruder
G1 Z1.0 F3000 ; move z up little to prevent scratching of surface
M117 Autobots! Roll Out!
; End of custom start GCode
G92 E0
G92 E0
G1 F1800 E-3
;LAYER_COUNT:2
;LAYER:0
M107
G0 F6000 X99.827 Y94.628 Z0.2
;TYPE:SKIRT
G1 F1800 E0
G1 F1200 X100.222 Y94.244 E0.02217
G1 X100.668 Y93.92 E0.04436
G1 X101.156 Y93.665 E0.06652
G1 X101.676 Y93.482 E0.0887
G1 X102.217 Y93.377 E0.11088
G1 X102.67 Y93.35 E0.12914
G1 X127.87 Y93.35 E1.14331
G1 X128.42 Y93.39 E1.1655
G1 X128.958 Y93.509 E1.18768
G1 X129.473 Y93.705 E1.20985
G1 X129.954 Y93.973 E1.23201
G1 X130.392 Y94.307 E1.25418
G1 X130.776 Y94.702 E1.27635
G1 X131.1 Y95.148 E1.29854
G1 X131.355 Y95.636 E1.3207
G1 X131.538 Y96.156 E1.34288
G1 X131.643 Y96.697 E1.36506
G1 X131.67 Y97.15 E1.38332
G1 X131.67 Y122.35 E2.39749
G1 X131.63 Y122.9 E2.41969
G1 X131.511 Y123.438 E2.44186
G1 X131.315 Y123.953 E2.46404
G1 X131.047 Y124.434 E2.4862
G1 X130.713 Y124.872 E2.50836
G1 X130.318 Y125.256 E2.53053
G1 X129.872 Y125.58 E2.55272
G1 X129.384 Y125.835 E2.57488
G1 X128.864 Y126.018 E2.59706
G1 X128.323 Y126.123 E2.61924
G1 X127.87 Y126.15 E2.63751
G1 X102.67 Y126.15 E3.65167
G1 X102.12 Y126.11 E3.67387
G1 X101.582 Y125.991 E3.69604
G1 X101.067 Y125.795 E3.71822
G1 X100.586 Y125.527 E3.74038
G1 X100.148 Y125.193 E3.76255
G1 X99.764 Y124.798 E3.78472
G1 X99.44 Y124.352 E3.8069
G1 X99.185 Y123.864 E3.82906
G1 X99.002 Y123.344 E3.85125
G1 X98.897 Y122.803 E3.87343
G1 X98.87 Y122.35 E3.89169
G1 X98.87 Y97.15 E4.90586
G1 X98.91 Y96.6 E4.92805
G1 X99.029 Y96.062 E4.95022
G1 X99.225 Y95.547 E4.9724
G1 X99.493 Y95.066 E4.99456
G1 X99.827 Y94.628 E5.01673
G0 F6000 X100.222 Y94.79
G1 F1200 X100.612 Y94.444 E5.03771
G1 X101.05 Y94.161 E5.0587
G1 X101.525 Y93.948 E5.07965
G1 X102.028 Y93.811 E5.10063
G1 X102.67 Y93.75 E5.12658
G1 X127.87 Y93.75 E6.14075
G1 X128.39 Y93.79 E6.16174
G1 X128.897 Y93.909 E6.1827
G1 X129.38 Y94.104 E6.20366
G1 X129.828 Y94.37 E6.22463
G1 X130.23 Y94.702 E6.24561
G1 X130.576 Y95.092 E6.26659
G1 X130.859 Y95.53 E6.28758
G1 X131.072 Y96.005 E6.30853
G1 X131.209 Y96.508 E6.32951
G1 X131.27 Y97.15 E6.35546
G1 X131.27 Y122.35 E7.36963
G1 X131.23 Y122.87 E7.39062
G1 X131.111 Y123.377 E7.41158
G1 X130.916 Y123.86 E7.43254
G1 X130.65 Y124.308 E7.45351
G1 X130.318 Y124.71 E7.47449
G1 X129.928 Y125.056 E7.49547
G1 X129.49 Y125.339 E7.51646
G1 X129.015 Y125.552 E7.53741
G1 X128.512 Y125.689 E7.55839
G1 X127.87 Y125.75 E7.58434
G1 X102.67 Y125.75 E8.59851
G1 X102.15 Y125.71 E8.6195
G1 X101.643 Y125.591 E8.64046
G1 X101.16 Y125.396 E8.66142
G1 X100.712 Y125.13 E8.68239
G1 X100.31 Y124.798 E8.70337
G1 X99.964 Y124.408 E8.72436
G1 X99.681 Y123.97 E8.74534
G1 X99.468 Y123.495 E8.76629
G1 X99.331 Y122.992 E8.78727
G1 X99.27 Y122.35 E8.81323
G1 X99.27 Y97.15 E9.82739
G1 X99.31 Y96.63 E9.84838
G1 X99.429 Y96.123 E9.86934
G1 X99.624 Y95.64 E9.8903
G1 X99.89 Y95.192 E9.91127
G1 X100.222 Y94.79 E9.93226
G0 F6000 X100.288 Y95.326
G1 F1200 X100.616 Y94.963 E9.95194
G1 X100.999 Y94.658 E9.97165
G1 X101.427 Y94.42 E9.99136
G1 X101.887 Y94.254 E10.01104
G1 X102.368 Y94.165 E10.03073
G1 X102.67 Y94.15 E10.04289
G1 X127.87 Y94.15 E11.05706
G1 X128.358 Y94.19 E11.07677
G1 X128.833 Y94.309 E11.09647
G1 X129.282 Y94.503 E11.11616
G1 X129.694 Y94.768 E11.13587
G1 X130.057 Y95.096 E11.15556
G1 X130.362 Y95.479 E11.17527
G1 X130.6 Y95.907 E11.19498
G1 X130.766 Y96.367 E11.21466
G1 X130.855 Y96.848 E11.23434
G1 X130.87 Y97.15 E11.24651
G1 X130.87 Y122.35 E12.26068
G1 X130.83 Y122.838 E12.28039
G1 X130.711 Y123.313 E12.30009
G1 X130.517 Y123.762 E12.31978
G1 X130.252 Y124.174 E12.33949
G1 X129.924 Y124.537 E12.35918
G1 X129.541 Y124.842 E12.37888
G1 X129.113 Y125.08 E12.39859
G1 X128.653 Y125.246 E12.41827
G1 X128.172 Y125.335 E12.43796
G1 X127.87 Y125.35 E12.45013
G1 X102.67 Y125.35 E13.4643
G1 X102.182 Y125.31 E13.484
G1 X101.707 Y125.191 E13.50371
G1 X101.258 Y124.997 E13.52339
G1 X100.846 Y124.732 E13.54311
G1 X100.483 Y124.404 E13.5628
G1 X100.178 Y124.021 E13.5825
G1 X99.94 Y123.593 E13.60221
G1 X99.774 Y123.133 E13.62189
G1 X99.685 Y122.652 E13.64158
G1 X99.67 Y122.35 E13.65375
G1 X99.67 Y97.15 E14.66792
G1 X99.71 Y96.662 E14.68762
G1 X99.829 Y96.187 E14.70733
G1 X100.023 Y95.738 E14.72701
G1 X100.288 Y95.326 E14.74673
G0 F6000 X100.685 Y95.471
G1 F1200 X101.008 Y95.15 E14.76505
G1 X101.383 Y94.891 E14.78339
G1 X101.797 Y94.701 E14.80173
G1 X102.238 Y94.586 E14.82007
G1 X102.67 Y94.55 E14.83751
G1 X127.87 Y94.55 E15.85168
G1 X128.324 Y94.59 E15.87002
G1 X128.764 Y94.708 E15.88836
G1 X129.176 Y94.902 E15.90668
G1 X129.549 Y95.165 E15.92505
G1 X129.87 Y95.488 E15.94338
G1 X130.129 Y95.863 E15.96172
G1 X130.319 Y96.277 E15.98005
G1 X130.434 Y96.718 E15.99839
G1 X130.47 Y97.15 E16.01584
G1 X130.47 Y122.35 E17.03001
G1 X130.43 Y122.804 E17.04835
G1 X130.312 Y123.244 E17.06668
G1 X130.118 Y123.656 E17.08501
G1 X129.855 Y124.029 E17.10338
G1 X129.532 Y124.35 E17.1217
G1 X129.157 Y124.609 E17.14005
G1 X128.743 Y124.799 E17.15838
G1 X128.302 Y124.914 E17.17672
G1 X127.87 Y124.95 E17.19417
G1 X102.67 Y124.95 E18.20833
G1 X102.216 Y124.91 E18.22668
G1 X101.776 Y124.792 E18.24501
G1 X101.364 Y124.598 E18.26334
G1 X100.991 Y124.335 E18.2817
G1 X100.67 Y124.012 E18.30003
G1 X100.411 Y123.637 E18.31837
G1 X100.221 Y123.223 E18.3367
G1 X100.106 Y122.782 E18.35505
G1 X100.07 Y122.35 E18.37249
G1 X100.07 Y97.15 E19.38666
G1 X100.11 Y96.696 E19.405
G1 X100.228 Y96.256 E19.42334
G1 X100.422 Y95.844 E19.44166
G1 X100.685 Y95.471 E19.46003
G0 F6000 X101.08 Y95.63
G1 F1200 X101.397 Y95.356 E19.47689
G1 X101.76 Y95.147 E19.49375
G1 X102.157 Y95.011 E19.51064
G1 X102.67 Y94.95 E19.53143
G1 X127.87 Y94.95 E20.5456
G1 X128.287 Y94.99 E20.56246
G1 X128.689 Y95.108 E20.57932
G1 X129.061 Y95.301 E20.59618
G1 X129.39 Y95.56 E20.61303
G1 X129.664 Y95.877 E20.6299
G1 X129.873 Y96.24 E20.64675
G1 X130.009 Y96.637 E20.66364
G1 X130.07 Y97.15 E20.68443
G1 X130.07 Y122.35 E21.6986
G1 X130.03 Y122.767 E21.71546
G1 X129.912 Y123.169 E21.73232
G1 X129.719 Y123.541 E21.74919
G1 X129.46 Y123.87 E21.76604
G1 X129.143 Y124.144 E21.7829
G1 X128.78 Y124.353 E21.79976
G1 X128.383 Y124.489 E21.81665
G1 X127.87 Y124.55 E21.83744
G1 X102.67 Y124.55 E22.85161
G1 X102.253 Y124.51 E22.86847
G1 X101.851 Y124.392 E22.88533
G1 X101.479 Y124.199 E22.90219
G1 X101.15 Y123.94 E22.91904
G1 X100.876 Y123.623 E22.93591
G1 X100.667 Y123.26 E22.95276
G1 X100.531 Y122.863 E22.96965
G1 X100.47 Y122.35 E22.99044
G1 X100.47 Y97.15 E24.00461
G1 X100.51 Y96.733 E24.02147
G1 X100.628 Y96.331 E24.03833
G1 X100.821 Y95.959 E24.0552
G1 X101.08 Y95.63 E24.07205
G0 F6000 X101.218 Y96.086
G1 F1200 X101.473 Y95.805 E24.08732
G1 X101.782 Y95.585 E24.10259
G1 X102.129 Y95.433 E24.11783
G1 X102.67 Y95.35 E24.13986
G1 X127.87 Y95.35 E25.15403
G1 X128.247 Y95.39 E25.16928
G1 X128.607 Y95.508 E25.18453
G1 X128.934 Y95.698 E25.19975
G1 X129.215 Y95.953 E25.21502
G1 X129.435 Y96.262 E25.23029
G1 X129.587 Y96.609 E25.24553
G1 X129.67 Y97.15 E25.26756
G1 X129.67 Y122.35 E26.28173
G1 X129.63 Y122.727 E26.29699
G1 X129.512 Y123.087 E26.31223
G1 X129.322 Y123.414 E26.32745
G1 X129.067 Y123.695 E26.34272
G1 X128.758 Y123.915 E26.35799
G1 X128.411 Y124.067 E26.37324
G1 X127.87 Y124.15 E26.39526
G1 X102.67 Y124.15 E27.40943
G1 X102.293 Y124.11 E27.42469
G1 X101.933 Y123.992 E27.43993
G1 X101.606 Y123.802 E27.45515
G1 X101.325 Y123.547 E27.47043
G1 X101.105 Y123.238 E27.48569
G1 X100.953 Y122.891 E27.50094
G1 X100.87 Y122.35 E27.52296
G1 X100.87 Y97.15 E28.53713
G1 X100.91 Y96.773 E28.55239
G1 X101.028 Y96.413 E28.56764
G1 X101.218 Y96.086 E28.58286
G0 F6000 X101.615 Y96.229
G1 F1200 X101.863 Y96.006 E28.59628
G1 X102.157 Y95.847 E28.60973
G1 X102.481 Y95.763 E28.6232
G1 X102.67 Y95.75 E28.63083
G1 X127.87 Y95.75 E29.64499
G1 X128.202 Y95.79 E29.65845
G1 X128.514 Y95.907 E29.67186
G1 X128.791 Y96.095 E29.68533
G1 X129.014 Y96.343 E29.69876
G1 X129.173 Y96.637 E29.71221
G1 X129.257 Y96.961 E29.72568
G1 X129.27 Y97.15 E29.7333
G1 X129.27 Y122.35 E30.74747
G1 X129.23 Y122.682 E30.76093
G1 X129.113 Y122.994 E30.77434
G1 X128.925 Y123.271 E30.78781
G1 X128.677 Y123.494 E30.80123
G1 X128.383 Y123.653 E30.81469
G1 X128.059 Y123.737 E30.82816
G1 X127.87 Y123.75 E30.83578
G1 X102.67 Y123.75 E31.84995
G1 X102.338 Y123.71 E31.86341
G1 X102.026 Y123.593 E31.87682
G1 X101.749 Y123.405 E31.89029
G1 X101.526 Y123.157 E31.90371
G1 X101.367 Y122.863 E31.91716
G1 X101.283 Y122.539 E31.93063
G1 X101.27 Y122.35 E31.93826
G1 X101.27 Y97.15 E32.95243
G1 X101.31 Y96.818 E32.96588
G1 X101.427 Y96.506 E32.97929
G1 X101.615 Y96.229 E32.99277
G0 F6000 X102.009 Y96.399
G1 F1200 X102.245 Y96.245 E33.00411
G1 X102.515 Y96.162 E33.01548
G1 X102.67 Y96.15 E33.02173
G1 X127.87 Y96.15 E34.0359
G1 X128.149 Y96.19 E34.04724
G1 X128.406 Y96.306 E34.05859
G1 X128.621 Y96.489 E34.06995
G1 X128.775 Y96.725 E34.08129
G1 X128.858 Y96.995 E34.09266
G1 X128.87 Y97.15 E34.09892
G1 X128.87 Y122.35 E35.11309
G1 X128.83 Y122.629 E35.12443
G1 X128.714 Y122.886 E35.13578
G1 X128.531 Y123.101 E35.14714
G1 X128.295 Y123.255 E35.15848
G1 X128.025 Y123.338 E35.16985
G1 X127.87 Y123.35 E35.17611
G1 X102.67 Y123.35 E36.19027
G1 X102.391 Y123.31 E36.20162
G1 X102.134 Y123.194 E36.21296
G1 X101.919 Y123.011 E36.22433
G1 X101.765 Y122.775 E36.23567
G1 X101.682 Y122.505 E36.24704
G1 X101.67 Y122.35 E36.25329
G1 X101.67 Y97.15 E37.26746
G1 X101.71 Y96.871 E37.2788
G1 X101.826 Y96.614 E37.29015
G1 X102.009 Y96.399 E37.30151
G0 F6000 X102.223 Y96.749
G1 F1200 X102.396 Y96.616 E37.3103
G1 X102.67 Y96.55 E37.32164
G1 X127.87 Y96.55 E38.33581
G1 X128.085 Y96.59 E38.34461
G1 X128.271 Y96.703 E38.35337
G1 X128.404 Y96.876 E38.36215
G1 X128.47 Y97.15 E38.37349
G1 X128.47 Y122.35 E39.38766
G1 X128.43 Y122.565 E39.39646
G1 X128.317 Y122.751 E39.40522
G1 X128.144 Y122.884 E39.414
G1 X127.87 Y122.95 E39.42534
G1 X102.67 Y122.95 E40.43951
G1 X102.455 Y122.91 E40.44831
G1 X102.269 Y122.797 E40.45707
G1 X102.136 Y122.624 E40.46585
G1 X102.07 Y122.35 E40.4772
G1 X102.07 Y97.15 E41.49136
G1 X102.11 Y96.935 E41.50016
G1 X102.223 Y96.749 E41.50892
G0 F6000 X102.509 Y97.031
G1 F1200 X102.67 Y96.95 E41.51618
G1 X127.87 Y96.95 E42.53034
G1 X127.989 Y96.989 E42.53538
G1 X128.07 Y97.15 E42.54264
G1 X128.07 Y122.35 E43.55681
G1 X128.031 Y122.469 E43.56185
G1 X127.87 Y122.55 E43.5691
G1 X102.67 Y122.55 E44.58327
G1 X102.551 Y122.511 E44.58831
G1 X102.47 Y122.35 E44.59556
G1 X102.47 Y97.15 E45.60973
G1 X102.509 Y97.031 E45.61477
G1 F1800 E42.61477
;MESH:Single square.stl
G0 F6000 X103.184 Y97.664
G0 X106.752 Y118.268
G0 X127.27 Y121.78
G1 F1800 E45.61477
G0 F6000 X127.57 Y122.05
;TYPE:WALL-OUTER
G1 F1200 X102.97 Y122.05 E46.51479
G1 X102.97 Y97.45 E47.41481
G1 X127.57 Y97.45 E48.31483
G1 X127.57 Y122.05 E49.21484
G0 F6000 X127.17 Y121.65
;TYPE:WALL-INNER
G1 F1200 X103.37 Y121.65 E50.08559
G1 X103.37 Y97.85 E50.95634
G1 X127.17 Y97.85 E51.8271
G1 X127.17 Y121.65 E52.69785
G0 F6000 X126.77 Y121.25
G1 F1200 X103.77 Y121.25 E53.53933
G1 X103.77 Y98.25 E54.38081
G1 X126.77 Y98.25 E55.22229
G1 X126.77 Y121.25 E56.06377
G0 F6000 X126.37 Y120.85
G1 F1200 X104.17 Y120.85 E56.87598
G1 X104.17 Y98.65 E57.6882
G1 X126.37 Y98.65 E58.50041
G1 X126.37 Y120.85 E59.31262
G0 F6000 X125.97 Y120.45
G1 F1200 X104.57 Y120.45 E60.09556
G1 X104.57 Y99.05 E60.87851
G1 X125.97 Y99.05 E61.66145
G1 X125.97 Y120.45 E62.4444
G0 F6000 X125.57 Y120.05
G1 F1200 X104.97 Y120.05 E63.19807
G1 X104.97 Y99.45 E63.95174
G1 X125.57 Y99.45 E64.70542
G1 X125.57 Y120.05 E65.45909
G0 F6000 X125.17 Y119.65
G1 F1200 X105.37 Y119.65 E66.1835
G1 X105.37 Y99.85 E66.90791
G1 X125.17 Y99.85 E67.63231
G1 X125.17 Y119.65 E68.35672
G0 F6000 X124.77 Y119.25
G1 F1200 X105.77 Y119.25 E69.05185
G1 X105.77 Y100.25 E69.74699
G1 X124.77 Y100.25 E70.44213
G1 X124.77 Y119.25 E71.13726
G0 F6000 X124.37 Y118.85
G1 F1200 X106.17 Y118.85 E71.80313
G1 X106.17 Y100.65 E72.469
G1 X124.37 Y100.65 E73.13487
G1 X124.37 Y118.85 E73.80074
G0 F6000 X123.97 Y118.45
G1 F1200 X106.57 Y118.45 E74.43734
G1 X106.57 Y101.05 E75.07393
G1 X123.97 Y101.05 E75.71053
G1 X123.97 Y118.45 E76.34713
G0 F6000 X123.58 Y118.06
;TYPE:SKIN
G1 F1200 X106.96 Y118.06 E76.95519
G1 X106.96 Y101.44 E77.56326
G1 X123.58 Y101.44 E78.17132
G1 X123.58 Y118.06 E78.77938
G0 F6000 X123.86 Y118.06
G0 X123.86 Y101.731
G0 X123.419 Y101.731
G1 F1200 X123.287 Y101.6 E78.78618
G0 F6000 X122.722 Y101.6
G1 F1200 X123.419 Y102.297 E78.82225
G0 F6000 X123.419 Y102.863
G1 F1200 X122.156 Y101.6 E78.88759
G0 F6000 X121.59 Y101.6
G1 F1200 X123.419 Y103.428 E78.9822
G0 F6000 X123.419 Y103.994
G1 F1200 X121.025 Y101.6 E79.10607
G0 F6000 X120.459 Y101.6
G1 F1200 X123.419 Y104.56 E79.25922
G0 F6000 X123.419 Y105.125
G1 F1200 X119.893 Y101.6 E79.44163
G0 F6000 X119.328 Y101.6
G1 F1200 X123.419 Y105.691 E79.6533
G0 F6000 X123.419 Y106.257
G1 F1200 X118.762 Y101.6 E79.89426
G0 F6000 X118.196 Y101.6
G1 F1200 X123.419 Y106.822 E80.16448
G0 F6000 X123.419 Y107.388
G1 F1200 X117.63 Y101.6 E80.46398
G0 F6000 X117.065 Y101.6
G1 F1200 X123.419 Y107.954 E80.79274
G0 F6000 X123.419 Y108.519
G1 F1200 X116.499 Y101.6 E81.15076
G0 F6000 X115.933 Y101.6
G1 F1200 X123.419 Y109.085 E81.53806
G0 F6000 X123.419 Y109.651
G1 F1200 X115.368 Y101.6 E81.95462
G0 F6000 X114.802 Y101.6
G1 F1200 X123.419 Y110.217 E82.40047
G0 F6000 X123.419 Y110.782
G1 F1200 X114.236 Y101.6 E82.87558
G0 F6000 X113.671 Y101.6
G1 F1200 X123.419 Y111.348 E83.37995
G0 F6000 X123.419 Y111.914
G1 F1200 X113.105 Y101.6 E83.9136
G0 F6000 X112.539 Y101.6
G1 F1200 X123.419 Y112.479 E84.47651
G0 F6000 X123.419 Y113.045
G1 F1200 X111.974 Y101.6 E85.06869
G0 F6000 X111.408 Y101.6
G1 F1200 X123.419 Y113.611 E85.69014
G0 F6000 X123.419 Y114.176
G1 F1200 X110.842 Y101.6 E86.34086
G0 F6000 X110.277 Y101.6
G1 F1200 X123.419 Y114.742 E87.02083
G0 F6000 X123.419 Y115.308
G1 F1200 X109.711 Y101.6 E87.73009
G0 F6000 X109.145 Y101.6
G1 F1200 X123.419 Y115.873 E88.46861
G0 F6000 X123.419 Y116.439
G1 F1200 X108.579 Y101.6 E89.23642
G0 F6000 X108.014 Y101.6
G1 F1200 X123.419 Y117.005 E90.03348
G0 F6000 X123.419 Y117.57
G1 F1200 X107.448 Y101.6 E90.85981
G0 F6000 X107.119 Y101.836
G1 F1200 X123.182 Y117.899 E91.69092
G0 F6000 X122.616 Y117.899
G1 F1200 X107.119 Y102.402 E92.49274
G0 F6000 X107.119 Y102.967
G1 F1200 X122.051 Y117.899 E93.26533
G0 F6000 X121.485 Y117.899
G1 F1200 X107.119 Y103.533 E94.00864
G0 F6000 X107.119 Y104.099
G1 F1200 X120.919 Y117.899 E94.72266
G0 F6000 X120.354 Y117.899
G1 F1200 X107.119 Y104.664 E95.40745
G0 F6000 X107.119 Y105.23
G1 F1200 X119.788 Y117.899 E96.06295
G0 F6000 X119.222 Y117.899
G1 F1200 X107.119 Y105.796 E96.68916
G0 F6000 X107.119 Y106.361
